addons/godot-flexbox/assets/light/AlignContentBetweenRowIcon.svg

<svg xmlns="http://www.w3.org/2000/svg" width="16" height="16" fill="none" data-wf-icon="JustifyContentSpaceBetweenColumnIcon" viewBox="0 0 24 24"><path fill="#474747" d="M24 0H0v1.5h24V0ZM24 22.5H0V24h24v-1.5ZM6 3h12v6H6V3ZM6 15h12v6H6v-6Z"/></svg>

<svg data-wf-icon="JustifyContentSpaceBetweenColumnIcon" width="16" height="16" viewBox="0 0 24 24" fill="none" xmlns="http://www.w3.org/2000/svg"><path d="M24 0H0V1.5H24V0Z" fill="#474747"></path><path d="M24 22.5H0V24H24V22.5Z" fill="#474747"></path><path d="M6 3H18V9H6V3Z" fill="#474747"></path><path d="M6 15H18V21H6V15Z" fill="#474747"></path></svg>
